symbols/web/delete/materialsymbolssharp/delete_wght500gradN25_48px.svg

<svg xmlns="http://www.w3.org/2000/svg" height="48" width="48"><path d="M9.75 42.05v-31.4H7.5V7.4h9.75V5.7h13.5v1.7h9.75v3.25h-2.2v31.4Zm3.3-3.3H35v-28.1H13.05Zm5.25-4.15h3.1V14.75h-3.1Zm8.35 0h3.05V14.75h-3.05Zm-13.6-23.95v28.1Z"/></svg>

<svg xmlns="http://www.w3.org/2000/svg" height="48" width="48"><path d="M9.75 42.05V10.65H7.5V7.4H17.25V5.7H30.75V7.4H40.5V10.65H38.3V42.05ZM13.05 38.75H35V10.65H13.05ZM18.3 34.6H21.4V14.75H18.3ZM26.65 34.6H29.7V14.75H26.65ZM13.05 10.65V38.75Z"/></svg>
